!! 00000] TT[WS
!!!OTL: Tui dengdeng
!!!ARE: Asia, China,ÿShanxi Linxian
!! Ethnic Group: Han
!! WI, 248
!!!SCT: J0293
!!!YEM: Copyright 1995, estate of Helmut Schaffrath.
**kern
*ICvox
*Ivox
*M2/4
*k[b-e-]
*B-:
{8b-
8cc
8ff
16dd
16cc
=1
8cc
8dd
4f
=2
8b-
16cc
16cc
8ff
16cc
16dd
=3
8cc
8d
4f}
=4
{8b-
8cc
8ff
16dd
16cc
=5
8ff
8cc
8dd
8cc
=6
8ff
8cc
8ff
16dd
16cc
=7
4b-
4b-}
=8
{8dd
16cc
16cc
8b-
8cc
=9
8b-
8cc
16cc
16b-
16g
16g
=10
4f
4f
=11
8f
8g
4f}
==
!!!AGN: Xiaodiao. Fengsu, Qingge, Aisu
!!!ONB: ESAC (Essen Associative Code) Database: CHINA
!!!AMT: simple duple
!!!AIN: vox
!!!EED: Helmut Schaffrath
!!!EEV: 1.0
*-
